X:1
T:Dunphy’s
M:4/4
L:1/8
R:Hornpipe
S:Brian Conway
Z:AK/Fiddler’s Companion
K:G
D2 |\
G(DB)(D G2 (3gag | f(e{f}e)^d ecAG | (3FAF D(G F)GAc | (3BAG A(F G)DB,D |
G(DB)(D G2 (3gag | f(e{f}e)^d ecAG | FAd(B {d}cA)FG | (3ABA GF G2 :|
|: Bc |\
(3ded B(d g)dBd | (3gfg b(a g)dBd | (3gag fg e(d^c)d | (3efe d^c d2 ef |
{a}(3gfg dc (3BcB G2 | ecAG (3FAF (3DEF | GBd(B {d}c)AFG | (3ABA GF G2 :|
